X: 90
T: Preludium B-dur
C: Maria Szymanowska
%%abc-version 2.0
%%abcx-abcm2ps-target-version 5.9.1 (29 Sep 2008)
%%abc-creator hum2abc beta
%%abcx-conversion-date 2021/10/04 07:38:39
%%abc-edited-by Leszek Kubiak
%%abc-edited-by Marcin Jachim
%%abcx-initial-encoding-date 2020-06-16
%%humdrum-veritas 1020651699
%%humdrum-veritas-data 3423003884
%%linebreak <none>
%%barnumbers 0
L: 1/16
M: 6/8
N: Derived from pl-kozmzk--mzk-m-31--017_szymanowska-maria--preludium-b-dur.krn
%%staves {1 2}
V: 1 clef=treble
V: 2 clef=bass
K: Bb
[V:1] f2 [I:setbarnb 1]| 
[V:2] z2 | 
[V:1] [B4d4b4][B,D][CE] [DF][EG][FA][GB][Ac][Bd] | 
[V:2] [B,,2B,2]B,,,2z8 | 
[V:1] [ce][df][eg][fa][gb][ac'] [bd'][c'e'][d'f'][e'g'][f'a'][g'b'] | 
[V:2] z12 | 
[V:1] [e'4g'4][eg][fa] [gb][fa][eg][df][ce][Bd] | 
[V:2] [E,2E2]E,,2z8 | 
[V:1] [Ac] [ff'][g=e'][a_e'][bd']!accent![=e_d'-] [fd']!accent![_ec'-][=dc']!accent![_db]F[cea] | 
[V:2] [F,,12F,12] | 
[V:1] [B2d2b2]>[f2d'2][=e^c'][fd'] [=e^c'][fd'][ec'][fd'][ec'][fd'] | 
[V:2] B,,F,B,DB,F, B,,F,B,DB,F, | 
[V:1] [ge'][fd'][=e^c'][fd'][g_e'][fd'][d4b4]z2 | 
[V:2] B,,F,B,DB,F, B,,F,B,DB,F, | 
[V:1] [e4c'4][=d=b][ec'] [db][ec'][db][ec'][db][ec'] | 
[V:2] B,,F,A,EA,F, B,,F,A,EA,F, | 
[V:1] [ec']!accent![d_b][ca]!accent![eg][Af]!accent![ce][B4d4]z2 | 
[V:2] F,,C,E,A,E,C, F,,C,E,A,E,C, | 
[V:1] {/D}[F4d4][=E^c][Fd] [Ec][Fd][Ec][Fd][Ec][Fd] | 
[V:2] B,,D,F,B,F,D, B,,D,F,B,F,D, | 
[V:1] dc=B_AGF[C4E4]z2 & !accent!_A2!accent!F2!accent!D2x4x2 | 
[V:2] G,,D,G,=B,G,D, C,,G,,E,G,,C,,G,, | 
[V:1] [E4c4][D=B][Ec] [DB][Ec][DB][Ec][DB][Ec] | 
[V:2] G,,,E,,C,E,,G,,,E,, G,,,D,,=B,,D,,G,,,D,, | 
[V:1] !wedge![Ec] [cc'][f_a][db][eg][ca] [df][=Bg][df]!accent![B_a][df][Bg] | 
[V:2] C,,4z2 z2 [G,,2G,2][G,,2G,2] | 
[V:1] !wedge![ce] [cc'][f_a][db][eg][ca] [df][=Bg][df]!accent![B_a][df][Bg] | 
[V:2] C,4z2 z2 [G,,2G,2][G,,2G,2] | 
[V:1] [ce] [c'c''][f'_a'][d'b'][e'g'][c'a'] [d'f'][=bg'][c'e'][af'][bd'][ge'] | 
[V:2] C,4z2z4z2 | 
[V:1] [ac'][fd'][gb][=ec'][fa][db] [=eg][^ca][eg][cb][eg][ca] | 
[V:2] z4z2 z2 [G,,2G,2][G,,2G,2] | 
[V:1] [df] [dd'][gb][=ec'][fa][db] [eg][^ca][eg][cb][eg][ca] | 
[V:2] D,4z2 z2 [A,,2A,2][A,,2A,2] | 
[V:1] [df] [dd'][gb][=ec'][fa][db] [eg][^ca][eg][cb][eg][ca] | 
[V:2] D,4z2 z2 [A,,2A,2][A,,2A,2] | 
[V:1] [df] [dd'][gb][=ec'][fa][db] [eg][ca][df][=Bg][ce][Af] | 
[V:2] D,4z2z4z2 | 
[V:1] [=Bd][G=e][Ac][Fd][G=B][=Ec] [FA][DB][F_A][DB][FG][D=B] ||  
[V:2] z12 ||  
[V:1]  [K:C] [E4G4c4][CE][DF] [EG][FA][GB][Ac][Bd][ce] | 
[V:2]  [K:C] [C,2C2]C,,2z8 | 
[V:1] [df][eg][fa][gb][ac'][bd'] [c'e'][d'f'][e'g'][f'a'][g'b'][a'c''] | 
[V:2] z12 | 
[V:1] [f'4a'4][fa][gb] [ac'][gb][fa][eg][df][ce] | 
[V:2] [F,2F2]F,,2z8 | 
[V:1] [Bd] [Gg][A^f][B=f][ce]!accent![^F_e-] [Ge]!accent![=Fd-][=Ed]!accent![_Ec]G,!accent![DFB] | 
[V:2] [G,,12G,12] | 
[V:1] [C4=E4c4][CE][DF] [EG][FA][EG][DF][^CE][A^cea] | 
[V:2] [C,,4C,4][C,E,][D,F,] [E,G,][F,A,][E,G,][D,F,][^C,E,]!wedge![A,,A,] | 
[V:1] [A4d4f4a4][DF][EG] [FA][G_B][FA][EG][^D^F][=B^d^f=b] | 
[V:2] !wedge![D,,4D,4][D,F,][E,G,] [F,A,][G,_B,][F,A,][E,G,][^D,^F,][=B,,=B,] | 
[V:1] [B4e4g4b4][EG][^FA] [GB][Ac][GB][FA][^E^G][^c^e^g^c'] | 
[V:2] [E,,4E,4][E,G,][F,A,] [G,B,][A,C][G,B,][F,A,][^E,^G,][^C,^C] | 
[V:1] [c^f^a^c'] [f^f'][bd'][^ge'][=a^c'][fd'] [gb][^ec'][gb][ed'][gb][ec'] | 
[V:2] [^F,,4^F,4]z2 z2 [^C,2^C2][C,2C2] | 
[V:1] [^fa] [f^f'][bd'][^ge'][a^c'][fd'] [gb][^ec'][gb][ed'][gb][ec'] | 
[V:2] ^F,4z2 z2 [^C,2^C2][C,2C2] | 
[V:1] [^fa] [f^f'][bd'][^ge'][a^c'][fd'] [gb][^ec'][gb][=e=c'][fa][^db] | 
[V:2] ^F,4z2 z2z4 | 
[V:1] [^fa][ec'][fa][^db][fa][ec'] [fa][db][fa][ec'][fa][db] ||  
[V:2] z12 ||  
[V:1]  [K:E] [e4g4b4e'4][E,G,][F,A,] [G,B,][A,C][B,D][CE][DF][EG] | 
[V:2]  [K:E] [E,2E2]E,,2 z2z4z2 | 
[V:1] [FA][GB][Ac][Bd][ce][df] [eg][fa][gb][ac'][bd'][c'e'] | 
[V:2] z12 | 
[V:1] [a4c'4][ac'][bd'] [c'e'][bd'][ac'][gb][fa][eg] | 
[V:2] [A,,2A,2]A,,,2 z2z4z2 | 
[V:1] [df] [Bb][c^a][d=a][eg]!accent![^A=g-] [Bg]!accent![=Af-]!accent![^Gf][=Ge]!accent!B,[FAd] | 
[V:2] [B,,12B,12] | 
[V:1] [E2G2e2]>[B2g2][^A^^f][Bg] [Af][Bg][Af][Bg][Af][Bg] | 
[V:2] E,,B,,G,B,,E,,B,, E,,B,,G,B,,E,,B,, | 
[V:1] [c=a][Bg][^A^^f][Bg][ca][Bg][G4e4]z2 | 
[V:2] E,,B,,G,B,,E,,B,, E,,B,,G,B,,E,,B,, | 
[V:1] [A4f4][G^e][Af] [Ge][Af][Ge][Af][Ge][Af] | 
[V:2] E,,A,,^D,A,,E,,A,, E,,A,,D,A,,E,,A,, | 
[V:1] [Af][Ge][Fd][Ac][DB][FA][E4G4]z2 | 
[V:2] B,,,F,,B,,F,,B,,,F,, E,,B,,E,B,,E,,B,, | 
[V:1] [B,4=G4][^A,F][B,=G] [A,F][B,G][A,F][B,G][A,F][B,G] | 
[V:2] E,,B,,=G,B,,E,,B,, E,,B,,G,B,,E,,B,, | 
[V:1] [=CA][B,=G][^A,F][B,G][=C=A][=B,G][=G,4E4]z2 | 
[V:2] E,,B,,=G,B,,E,,B,, E,,B,,G,B,,E,,B,, | 
[V:1] [=G,4E4][F,D][G,E] [F,D][G,E][F,D][G,E][F,D][G,E] ||  
[V:2] =C,,^A,,E,A,,C,,A,, C,,A,,E,A,,C,,A,, ||  
[V:1]  [K:Gb] [B,4=G4][=A,^F][B,G] [A,F][B,G][A,F][B,G][A,F][B,G] | 
[V:2]  [K:Gb] =C,,=G,,=E,G,,C,,G,, C,,G,,E,G,,C,,G,, | 
[V:1] [=A,4F4][^G,=E][A,F] [G,E][A,F][G,E][A,F][G,E][A,F] | 
[V:2] F,,=C,F,C,F,,C, F,,C,F,C,F,,C, | 
[V:1] [=C4=A4][=B,^G][CA] [B,G][CA][B,G][CA][B,G][CA] | 
[V:2] F,,E,=A,E,F,,E, F,,E,A,E,F,,E, | 
[V:1] [=c'e'][=d'f'][e'=g'][d'f'][c'e'][bd'] [=ac'][bd'][c'e'][bd'][ac'][=gb] | 
[V:2] !arpeggio![F,,4E,4=A,4]z2z4z2 | 
[V:1] [f=a][=gb][a=c'][gb][fa][eg] [=df][eg][df][=ce][Bd][Fc] | 
[V:2] z12 | 
[V:1] [=D4B4][B,D][=CE] [DF][E=G][F=A][GB][A=c][B=d] | 
[V:2] !wedge![B,,2B,2]B,,,2 z2z4z2 | 
[V:1] [=ce][=df][e=g][f=a][gb][a=c'] [b=d'][c'e'][d'f'][e'=g'][f'=a'][g'b'] | 
[V:2] z12 | 
[V:1] [e'4=g'4][E=G][F=A] [GB][A=c][B=d][ce][df][e=g] | 
[V:2] [E,2E2]E,,2 z2z4z2 | 
[V:1] [f=a][=gb][a=c'][b=d'][c'e'][d'f'] [e'=g'][f'=a'][g'b'][f'a'][g'b'][e'g'] | 
[V:2] z12 | 
[V:1] [=d'f'][=b=g'][=c'e'][=af'][_bd'][=ge'] [ac'][fd'][gb][=ec'][fa][=db] | 
[V:2] [F,,12F,12] | 
[V:1] [_e=g][=c=a][=df][Bg][ce][=Af] [Bd][=Ge][Ac][Fd][GB][=Ec] | 
[V:2] F,,F,F,,F,F,,F, F,,F,F,,F,F,,F, | 
[V:1] [F=A][=DB][_E=G][=CA][DF][B,G] [CE][=A,F][CE][A,_G][CE][A,F] | 
[V:2] F,, F,,F,,,F,,F,,,F,, F,,,F,,F,,,F,,F,,,F,, | 
[V:1] [=A,=C][F,E][A,C][_G,E][A,C][F,E] [G,A,][E,C][F,A,][E,C][G,A,][E,C] | 
[V:2] F,,,F,,F,,,F,,F,,,F,, F,,,F,,F,,,F,,F,,,F,, | 
[V:1] [F,=A,][E,=C][_G,A,][E,C][F,A,][E,C][=D,4F,4B,4]z2 | 
[V:2] F,,,F,,F,,,F,,F,,,F,,B,,,4z2 | 
[V:1] !arpeggio![E4=A4=c4f4]z2!fermata![=D4F4B4=d4]z2 |]  
[V:2] !arpeggio![F,,4=C,4F,4]z2!fermata![B,,4=D,4F,4B,4]z2 |]  


